X:1973
T:Engelska från Hjortsberga
R:Engelska
O:Hjortsberga, Småland
Z:Sven Midgren, 110323
M:2/4
L:1/16
K:D
|: f2fe fedc | BABc d2e2 | f2fe fedc | B2c2 d4 :|
|: DFAF G2B2 | Acec d2f2 | DFAF G2B2 | A2c2 d4 :|
(:musicend:)

Denna låt har [[!lite information]]. Då det geografiska ursprunget är relativt precist, är det möjligt att det även är känt vem låten är efter?
(:music:)
